images/LOGOS_CLIENTES/AUTOPISTAS.svg

<svg width="71" height="39" viewBox="0 0 71 39" fill="none" xmlns="http://www.w3.org/2000/svg">
<path fill-rule="evenodd" clip-rule="evenodd" d="M24.8472 10.7253L20.658 10.6433C20.2958 11.0879 20.0982 11.6639 19.8183 12.1768L21.1705 12.2248C20.2134 14.485 19.1415 16.7105 18.1194 18.9527L20.2958 18.9863L22.8348 12.5058C23.0334 11.9113 23.8414 12.2913 24.3358 12.1768L24.8472 10.7253ZM40.7589 10.6437H39.1766L41.3194 18.9863H43.4958L40.7589 10.6437ZM46.266 10.6437C44.8643 10.7906 43.0671 10.2142 42.2271 11.4346C41.9128 12.1096 42.2271 12.8197 42.6543 13.3307L46.975 17.0909C45.9185 17.1729 44.7491 17.0909 43.7274 17.1729L44.3536 18.953H48.0466C48.7563 18.8711 49.5797 18.953 49.9763 18.1946C50.0907 17.9317 50.0907 17.5185 49.9763 17.2548C48.2603 15.3243 46.0839 13.9744 44.1549 12.2588L44.2377 12.1768H47.0566L46.266 10.6437ZM46.859 10.6437L47.6847 12.1772C48.0802 12.1927 48.4926 12.1432 48.8703 12.2252L52.9433 18.953H55.236C53.8513 16.6943 52.1848 14.5338 50.8156 12.2588C51.3769 12.1768 51.7066 12.2754 52.2675 12.1768C51.9223 11.6824 51.5918 11.1543 51.1631 10.6758L46.859 10.6437ZM62.2438 10.6437H60.4628C59.7206 10.8246 58.5508 10.5107 57.9737 11.2688C57.8577 11.6643 57.9567 12.1092 58.2864 12.3407L66.5962 17.123L66.5142 17.2061L63.4298 17.1729L63.1998 17.2548L64.867 18.9867C66.3986 18.8869 68.4443 19.0365 70.1588 18.8711C70.4878 18.706 70.7511 18.3759 70.637 17.9649C70.5535 17.5185 70.1252 17.14 69.7614 16.8919L61.5692 12.5062L61.0574 12.1432C61.9809 12.0616 63.0181 12.1432 63.9087 12.0616L62.2438 10.6437ZM16.3879 10.6758H14.4755L10.0895 16.414C9.79298 17.0074 9.19883 17.5181 9.413 18.2766C9.70988 18.9689 10.4853 19.2001 11.1603 19.2987C13.1229 19.5302 14.9692 19.0022 16.1405 17.452L19.9494 10.6758C19.356 10.6924 18.7297 10.6433 18.2013 10.7253L15.0032 15.9366C14.4257 16.7929 13.6835 17.6341 12.5794 17.452C12.3648 17.3867 12.1171 17.2216 12.1008 16.9742C13.5022 14.93 14.8374 12.8684 16.338 10.8737L16.3879 10.6758ZM33.3217 12.9349C33.9664 14.2539 33.7171 16.1005 32.7619 17.205C31.2117 18.9364 29.018 19.4981 26.743 19.1506C25.4897 18.8866 24.2202 18.2611 23.5441 17.0074C22.9009 15.9189 23.0164 14.3034 23.7428 13.2979C25.112 10.9239 27.7496 10.1322 30.2716 10.5277C31.5083 10.7747 32.7785 11.7149 33.3217 12.9349ZM30.7823 12.5723C29.5302 11.7814 27.6824 12.0118 26.5126 12.8193C25.5724 13.5124 24.8472 14.5168 25.1607 15.7051C25.4742 16.612 26.3645 17.1891 27.2699 17.3194C28.7543 17.568 30.3377 17.239 31.3432 16.0186C31.7885 15.3579 31.9532 14.4189 31.6892 13.6103C31.4924 13.2148 31.1785 12.8193 30.7823 12.5723ZM39.2922 12.2588C39.5887 12.8858 39.8354 13.7765 39.4554 14.4359C38.8144 15.7874 37.197 15.4739 35.9778 15.7391L36.323 18.9867H34.0643C34.0971 16.2501 33.8826 13.4293 33.8006 10.6437C35.8286 10.7083 38.2195 10.2297 39.2922 12.2588ZM35.6458 12.2588L35.8456 13.9574L37.4781 13.9238C37.923 13.7764 37.9725 13.2809 37.8728 12.9024C37.4781 12.0272 36.4556 12.3253 35.6458 12.2588ZM8.42376 18.9863H6.16464C6.52725 18.2271 7.00657 17.5351 7.3518 16.777C6.6602 16.7597 5.96747 16.6274 5.25774 16.726L2.65301 19.0358L-0.00195312 18.9859L10.6504 10.5927L12.4642 10.6762L8.42376 18.9863ZM9.29779 13.2484L7.12139 15.1929L8.19297 15.2265C8.55596 14.5674 9.05077 13.8739 9.29779 13.2484ZM63.8275 18.442C63.9745 18.6237 64.2385 18.7551 64.3862 18.953C63.5133 19.0195 62.6392 18.9689 61.6995 18.9867L59.2428 16.7268C58.6328 16.6943 57.8736 16.6433 57.3467 16.7778L58.3699 18.9028C57.5929 18.9534 56.884 19.0029 56.0269 18.9534L52.7948 10.726C53.4218 10.6595 54.3117 10.6595 54.89 10.726L63.8275 18.442ZM56.0269 13.8418C56.4564 14.3358 56.3907 15.8369 57.4611 15.1438L56.0269 13.8418ZM51.2473 20.0911L51.1631 20.1406L55.171 28.4843L61.1378 28.5663C60.8575 27.9563 60.4458 27.4124 60.1161 26.8179C59.0279 26.8024 57.8403 26.8843 56.8685 26.7529L53.3399 20.1731C52.6653 20.0911 52.0209 20.1912 51.2473 20.0911ZM29.3156 20.1406L29.1996 20.1731L27.6997 28.1368V28.5331L39.9672 28.4843C40.907 28.4333 42.0779 28.7314 42.5716 27.7754C42.7208 27.4124 42.6883 26.9179 42.4239 26.6199L38.2195 21.9544L38.153 21.7568H41.2367C41.1547 21.2295 41.072 20.7011 40.9904 20.1731L38.2195 20.2241C37.4448 20.2565 36.5545 20.0745 35.9268 20.5376C35.6643 20.7661 35.631 21.0973 35.6458 21.4433C36.8012 23.3553 38.4174 24.9542 39.7704 26.7846H31.2941L30.3045 26.7034C30.519 24.4938 30.8321 22.2837 31.0958 20.1406H29.3156ZM28.689 20.1731H23.3137L20.264 28.4843H26.9413C27.0897 27.9729 27.2873 27.3629 27.2703 26.7846C25.7545 26.8179 24.5998 26.8024 23.2314 26.7529L23.8244 24.8401H27.3368L27.733 23.1906H24.4185L24.3026 23.1087C24.4839 22.6467 24.5507 22.1364 24.814 21.724H28.2935L28.689 20.1731Z" fill="black"/>
<path fill-rule="evenodd" clip-rule="evenodd" d="M52.4003 23.4209C52.9778 24.4442 52.863 25.9108 52.2027 26.8668C50.9827 28.6323 48.8558 29.0772 46.7289 28.7633C44.6344 28.3849 42.4905 26.8173 41.7162 24.7237C41.3695 23.7337 41.601 22.5967 42.1782 21.8051C43.5629 20.1231 45.6403 19.7291 47.7665 20.0241C49.6479 20.403 51.544 21.5414 52.4003 23.4209ZM45.0307 21.6415C44.2552 22.0192 43.6127 22.8766 43.6127 23.7847C43.7434 24.7414 44.2552 25.6468 45.1459 26.1918C46.3338 27.0659 48.0482 27.2128 49.4337 26.6708C49.9942 26.3728 50.5374 25.7798 50.6534 25.1694C50.8509 24.4612 50.5869 23.7507 50.2246 23.1901C49.0866 21.41 46.8445 20.9975 45.0307 21.6415ZM21.8468 22.037C22.0776 24.1631 20.9075 25.9765 19.2259 27.1803C16.8678 28.6648 13.8166 28.4683 10.9648 28.4004L15.8291 20.1401C18.1033 20.355 21.0555 19.382 21.8468 22.037ZM16.983 21.7567C16.1241 23.3877 15.1681 25.0051 14.4436 26.6198C15.9594 26.7203 17.3622 26.2738 18.5656 25.4829C19.5386 24.7577 20.2472 23.7027 19.9836 22.5152C19.3902 21.4432 18.038 21.8549 16.983 21.7567Z" fill="black"/>
<path fill-rule="evenodd" clip-rule="evenodd" d="M46.5818 9.08218C45.3003 3.88028 40.6056 0 35.0082 0C29.3882 0 24.677 3.8901 23.4199 9.12448L46.5818 9.08218Z" fill="black"/>
<path fill-rule="evenodd" clip-rule="evenodd" d="M19.7324 32.7733H21.3456C21.9421 32.7733 22.8331 32.9429 22.8331 33.9544C22.8331 34.5032 22.4633 34.8878 21.9134 34.9863V34.998C22.543 35.057 22.9713 35.4819 22.9713 36.0507C22.9713 37.2141 21.9273 37.3852 21.3456 37.3852H19.7324V32.7733ZM20.6582 36.6581H21.0945C21.5243 36.6581 22.0463 36.5527 22.0463 36.0171C22.0463 35.4158 21.5575 35.3229 21.0945 35.3229H20.6582V36.6581ZM20.6582 34.6354H21.0344C21.425 34.6354 21.9073 34.5489 21.9073 34.0742C21.9073 33.5393 21.4378 33.4989 21.0159 33.4989H20.6582V34.6354ZM26.8176 37.3856H25.9795V36.9221H25.9662C25.6947 37.2526 25.3109 37.4645 24.8486 37.4645C24.0422 37.4645 23.6924 36.8957 23.6924 36.1308V33.9812H24.5781V35.7988C24.5781 36.215 24.5842 36.7778 25.1526 36.7778C25.7944 36.7778 25.9323 36.0836 25.9323 35.647V33.9812H26.8176V37.3856ZM30.4603 37.1937C30.1362 37.3724 29.7664 37.4645 29.2898 37.4645C28.1661 37.4645 27.5122 36.8175 27.5122 35.6998C27.5122 34.7151 28.0342 33.9027 29.0915 33.9027C30.3546 33.9027 30.7119 34.7673 30.7119 35.9578H28.3583C28.3976 36.5066 28.7814 36.8171 29.3298 36.8171C29.7593 36.8171 30.1298 36.6577 30.4607 36.4734L30.4603 37.1937ZM29.865 35.3478C29.8386 34.9199 29.6403 34.5489 29.1455 34.5489C28.6492 34.5489 28.398 34.8934 28.3583 35.3478H29.865ZM31.4061 33.9809H32.2443V34.4428H32.2586C32.5347 34.0534 32.9128 33.9027 33.3759 33.9027C34.1808 33.9027 34.5313 34.4708 34.5313 35.2371V37.3856H33.6456V35.5684C33.6456 35.1503 33.6395 34.5886 33.0711 34.5886C32.4293 34.5886 32.2907 35.2828 32.2907 35.7187V37.3852H31.4057L31.4061 33.9809ZM36.8906 32.7733H37.8828L39.0647 36.3948H39.0794L40.2488 32.7733H41.1671L39.6135 37.3856H38.4766L36.8906 32.7733ZM41.7752 33.9809H42.6605V37.3856H41.7752V33.9809ZM41.7752 32.5134H42.6605V33.3595H41.7752V32.5134ZM43.7431 34.1595C44.0868 34.0016 44.5495 33.9027 44.9272 33.9027C45.9644 33.9027 46.3939 34.3321 46.3939 35.3361V35.772C46.3939 36.1172 46.4014 36.3741 46.4079 36.6256C46.4147 36.884 46.4271 37.1212 46.4471 37.3856H45.6683C45.6343 37.2069 45.6343 36.9814 45.6271 36.8757H45.6143C45.4092 37.2526 44.9665 37.4645 44.5623 37.4645C43.9625 37.4645 43.374 37.1008 43.374 36.4538C43.374 35.9431 43.6177 35.6466 43.9546 35.4823C44.2927 35.3157 44.7293 35.2832 45.0979 35.2832H45.5893C45.5893 34.7344 45.3431 34.5493 44.8215 34.5493C44.4445 34.5493 44.0675 34.6955 43.7703 34.9202L43.7431 34.1595ZM44.7814 36.8175C45.0522 36.8175 45.263 36.6981 45.4028 36.5134C45.5482 36.3223 45.5893 36.076 45.5893 35.8113H45.2048C44.8071 35.8113 44.2194 35.8785 44.2194 36.4009C44.219 36.6913 44.4641 36.8175 44.7814 36.8175ZM46.7444 38.1652C47.2203 38.1388 47.2861 38.0458 47.2861 37.5182V33.9809H48.1729V37.6371C48.1729 38.118 48.0351 38.8538 47.1482 38.8538C47.0035 38.8538 46.823 38.8322 46.7123 38.7998L46.7444 38.1652ZM47.2857 32.5134H48.1726V33.3595H47.2857V32.5134ZM51.8337 37.1937C51.5085 37.3724 51.138 37.4645 50.6628 37.4645C49.5391 37.4645 48.8842 36.8175 48.8842 35.6998C48.8842 34.7151 49.4081 33.9027 50.4653 33.9027C51.7276 33.9027 52.083 34.7673 52.083 35.9578H49.7314C49.7707 36.5066 50.1548 36.8171 50.7021 36.8171C51.1316 36.8171 51.5017 36.6577 51.8337 36.4734V37.1937ZM51.2385 35.3478C51.2128 34.9199 51.0134 34.5489 50.517 34.5489C50.0226 34.5489 49.7703 34.8934 49.7314 35.3478H51.2385Z" fill="black"/>
</svg>

<svg width="71" height="39" fill="none" xmlns="http://www.w3.org/2000/svg"><path fill-rule="evenodd" clip-rule="evenodd" d="m24.847 10.725-4.189-.082c-.362.445-.56 1.02-.84 1.534l1.352.048c-.957 2.26-2.029 4.486-3.05 6.728l2.176.033 2.539-6.48c.198-.595 1.006-.215 1.5-.33l.512-1.45Zm15.912-.081h-1.582l2.142 8.342h2.177l-2.737-8.342Zm5.507 0c-1.402.147-3.199-.43-4.039.79-.314.676 0 1.386.427 1.897l4.321 3.76c-1.056.082-2.226 0-3.248.082l.627 1.78h3.693c.71-.082 1.533 0 1.93-.758a1.33 1.33 0 0 0 0-.94c-1.717-1.93-3.893-3.28-5.822-4.996l.083-.082h2.819l-.791-1.533Zm.593 0 .826 1.533c.395.016.808-.034 1.185.048l4.073 6.728h2.293c-1.385-2.259-3.051-4.42-4.42-6.694.56-.082.89.016 1.451-.082-.345-.495-.675-1.023-1.104-1.501l-4.304-.032Zm15.385 0h-1.781c-.742.18-1.912-.133-2.49.625-.115.395-.016.84.313 1.072l8.31 4.782-.082.083-3.084-.033-.23.082 1.667 1.732c1.532-.1 3.577.05 5.292-.116.329-.165.592-.495.478-.906-.084-.447-.512-.825-.876-1.073l-8.192-4.386-.512-.363c.924-.081 1.961 0 2.852-.081l-1.665-1.418Zm-45.856.032h-1.913l-4.386 5.738c-.296.593-.89 1.104-.676 1.863.297.692 1.072.923 1.747 1.022 1.963.231 3.81-.297 4.98-1.847l3.81-6.776c-.594.016-1.22-.033-1.749.05l-3.198 5.21c-.577.857-1.32 1.698-2.424 1.516-.214-.065-.462-.23-.478-.478 1.401-2.044 2.736-4.106 4.237-6.1l.05-.198Zm16.934 2.259c.644 1.319.395 3.165-.56 4.27-1.55 1.731-3.744 2.293-6.019 1.946-1.253-.264-2.523-.89-3.199-2.144-.643-1.088-.528-2.704.199-3.71 1.369-2.373 4.007-3.165 6.529-2.77 1.236.248 2.507 1.188 3.05 2.408Zm-2.54-.363c-1.252-.79-3.1-.56-4.27.247-.94.693-1.665 1.698-1.351 2.886.313.907 1.203 1.484 2.109 1.614 1.484.249 3.068-.08 4.073-1.3.445-.661.61-1.6.346-2.409-.197-.395-.51-.79-.907-1.038Zm8.51-.313c.297.627.543 1.518.163 2.177-.64 1.351-2.258 1.038-3.477 1.303l.345 3.248h-2.259c.033-2.737-.181-5.558-.263-8.343 2.028.064 4.418-.414 5.491 1.615Zm-3.646 0 .2 1.698 1.632-.033c.445-.148.494-.643.395-1.022-.395-.875-1.417-.577-2.227-.643ZM8.424 18.986h-2.26c.363-.759.843-1.45 1.188-2.209-.692-.017-1.385-.15-2.094-.051l-2.605 2.31-2.655-.05 10.652-8.393 1.814.083-4.04 8.31Zm.874-5.738L7.12 15.193l1.072.034c.363-.66.858-1.353 1.105-1.979Zm54.53 5.194c.146.182.41.313.558.511-.873.067-1.747.016-2.686.034l-2.457-2.26c-.61-.033-1.37-.084-1.896.05l1.023 2.126c-.777.05-1.486.1-2.343.05l-3.232-8.227a11.024 11.024 0 0 1 2.095 0l8.938 7.716Zm-7.801-4.6c.43.494.364 1.995 1.434 1.302l-1.434-1.302Zm-4.78 6.25-.084.049 4.008 8.343 5.967.082c-.28-.61-.692-1.154-1.022-1.748-1.088-.016-2.276.066-3.248-.065l-3.528-6.58c-.675-.082-1.32.018-2.093-.082Zm-21.931.049-.116.032-1.5 7.964v.396l12.267-.049c.94-.05 2.11.247 2.605-.709.149-.363.116-.857-.148-1.155l-4.205-4.666-.066-.197h3.084l-.247-1.584-2.77.051c-.775.032-1.666-.15-2.293.314-.263.228-.296.56-.281.905 1.155 1.912 2.771 3.511 4.124 5.342h-8.476l-.99-.082c.215-2.21.528-4.42.792-6.562h-1.78Zm-.627.032h-5.375l-3.05 8.311h6.677c.149-.511.346-1.121.33-1.7a64.74 64.74 0 0 1-4.04-.031l.593-1.913h3.513l.396-1.65h-3.314l-.116-.081c.18-.462.248-.973.511-1.385h3.48l.395-1.55Z" fill="#000"/><path fill-rule="evenodd" clip-rule="evenodd" d="M52.4 23.42c.578 1.024.463 2.49-.197 3.447-1.22 1.765-3.347 2.21-5.474 1.896-2.095-.378-4.239-1.946-5.013-4.04-.346-.99-.115-2.126.462-2.918 1.385-1.682 3.462-2.076 5.589-1.78 1.88.378 3.777 1.516 4.633 3.396Zm-7.37-1.779c-.775.378-1.417 1.236-1.417 2.144.13.956.642 1.862 1.533 2.407 1.188.874 2.902 1.02 4.288.479.56-.298 1.103-.891 1.22-1.502.197-.708-.067-1.418-.43-1.979-1.137-1.78-3.38-2.193-5.193-1.549Zm-23.183.396c.23 2.126-.94 3.94-2.621 5.143-2.358 1.485-5.41 1.288-8.261 1.22l4.864-8.26c2.274.215 5.226-.758 6.018 1.897Zm-4.864-.28c-.859 1.63-1.815 3.248-2.54 4.863 1.516.1 2.92-.346 4.123-1.137.973-.725 1.681-1.78 1.418-2.968-.594-1.072-1.946-.66-3.001-.758ZM46.582 9.082C45.3 3.88 40.606 0 35.008 0c-5.62 0-10.331 3.89-11.588 9.124l23.162-.042ZM19.732 32.773h1.614c.596 0 1.487.17 1.487 1.181 0 .55-.37.934-.92 1.032v.012c.63.059 1.058.484 1.058 1.053 0 1.163-1.044 1.334-1.625 1.334h-1.614v-4.612Zm.926 3.885h.436c.43 0 .952-.105.952-.64 0-.602-.488-.695-.951-.695h-.437v1.335Zm0-2.023h.376c.391 0 .873-.086.873-.56 0-.536-.47-.576-.891-.576h-.358v1.136Zm6.16 2.75h-.838v-.463h-.014c-.271.33-.655.543-1.117.543-.807 0-1.157-.57-1.157-1.334v-2.15h.886V35.8c0 .416.006.979.575.979.641 0 .78-.694.78-1.131v-1.666h.885v3.405Zm3.642-.191c-.324.178-.694.27-1.17.27-1.124 0-1.778-.646-1.778-1.764 0-.985.522-1.797 1.58-1.797 1.263 0 1.62.864 1.62 2.055h-2.354c.04.549.423.86.972.86.43 0 .8-.16 1.13-.345v.72Zm-.595-1.846c-.026-.428-.225-.8-.72-.8-.496 0-.747.345-.787.8h1.507Zm1.541-1.367h.838v.462h.015c.276-.39.654-.54 1.117-.54.805 0 1.155.568 1.155 1.334v2.149h-.885v-1.818c0-.418-.007-.98-.575-.98-.642 0-.78.695-.78 1.13v1.667h-.885v-3.404Zm5.485-1.208h.992l1.182 3.622h.014l1.17-3.622h.918l-1.553 4.613h-1.137l-1.586-4.613Zm4.884 1.208h.886v3.405h-.886V33.98Zm0-1.468h.886v.846h-.886v-.846Zm1.968 1.647a3.06 3.06 0 0 1 1.184-.257c1.037 0 1.467.43 1.467 1.433v.436c0 .345.007.602.014.854.007.258.02.495.04.76h-.78c-.034-.18-.034-.405-.04-.51h-.014c-.205.377-.647.589-1.052.589-.6 0-1.188-.364-1.188-1.011 0-.51.244-.807.58-.972.339-.166.775-.199 1.144-.199h.491c0-.549-.246-.734-.767-.734-.378 0-.755.147-1.052.371l-.027-.76Zm1.038 2.658c.271 0 .482-.12.622-.305.145-.19.186-.437.186-.702h-.384c-.398 0-.986.068-.986.59 0 .29.245.416.562.416Zm1.963 1.347c.476-.026.542-.12.542-.647v-3.537h.887v3.656c0 .481-.138 1.217-1.025 1.217-.145 0-.325-.022-.436-.054l.032-.635Zm.542-5.652h.887v.846h-.887v-.846Zm4.548 4.68c-.326.18-.696.272-1.171.272-1.124 0-1.779-.648-1.779-1.765 0-.985.524-1.797 1.581-1.797 1.263 0 1.618.864 1.618 2.055h-2.352c.04.549.424.86.971.86.43 0 .8-.16 1.132-.345v.72Zm-.596-1.845c-.025-.428-.225-.8-.721-.8-.494 0-.747.345-.786.8h1.508Z" fill="#000"/></svg>
